bundle/image/pages/questions/img/streak.svg

<svg width="251" height="38" viewBox="0 0 251 38" fill="none" xmlns="http://www.w3.org/2000/svg">
<path d="M202.973 37.2001H218.209L250.262 0H235L202.973 37.2001Z" fill="#989898"/>
<path d="M181.268 37.2001H196.134L227.331 0H212.465L181.268 37.2001Z" fill="#989898"/>
<path d="M158.337 37.2001H173.203L204.399 0H189.558L158.337 37.2001Z" fill="#989898"/>
<path d="M135.405 37.2001H150.271L181.467 0H166.626L135.405 37.2001Z" fill="#989898"/>
<path d="M112.498 37.2001H127.339L158.56 0H143.694L112.498 37.2001Z" fill="#989898"/>
<path d="M89.5661 37.2001H104.432L135.628 0H120.762L89.5661 37.2001Z" fill="#989898"/>
<path d="M66.6343 37.2001H81.5002L112.696 0H97.8552L66.6343 37.2001Z" fill="#989898"/>
<path d="M43.7024 37.2001H58.5684L89.7893 0H74.9234L43.7024 37.2001Z" fill="#989898"/>
<path d="M20.7954 37.2001H35.6366L66.8575 0H51.9916L20.7954 37.2001Z" fill="#989898"/>
<path d="M-2.13642 37.2001H12.7295L43.9257 0H29.0597L-2.13642 37.2001Z" fill="#989898"/>
<path d="M-25.0682 37.2001H-10.2022L20.9939 0H6.15282L-25.0682 37.2001Z" fill="#989898"/>
</svg>

<svg width="251" height="38" fill="none" xmlns="http://www.w3.org/2000/svg"><path d="M202.973 37.2h15.236L250.262 0H235l-32.027 37.2zM181.268 37.2h14.866L227.331 0h-14.866l-31.197 37.2zM158.337 37.2h14.866L204.399 0h-14.841l-31.221 37.2zM135.405 37.2h14.866L181.467 0h-14.841l-31.221 37.2zM112.498 37.2h14.841L158.56 0h-14.866l-31.196 37.2zM89.566 37.2h14.866L135.628 0h-14.866L89.566 37.2zM66.634 37.2H81.5L112.696 0h-14.84L66.633 37.2zM43.702 37.2h14.866L89.79 0H74.923l-31.22 37.2zM20.795 37.2h14.842L66.857 0H51.992L20.795 37.2zM-2.136 37.2h14.865L43.926 0H29.06L-2.136 37.2zM-25.068 37.2h14.866L20.994 0H6.153l-31.221 37.2z" fill="#989898"/></svg>
